X: 1
T: Planksty
B: A COLECTION of the most Celebrated Irish Tunes2 p.1a
N: Fixed extra beat at end of 1st part in the obvious way.
M: 6/4
L: 1/8
K: Gdor
z2 |\
G3ABc d4c2 | TB3cd2 c2A2F2 | F2G2F2 c2A2F2 | FEFGF2 c2A2F2 |
G3ABc d2B2G2 | GFGABc d2B2G2 | f4f2 Tf3ga2 | f6 d4 :|
|: (fg) |\
a2g2f2 g2f2e2 | f2e2d2 c2d2e2 | f2e2d2 g2f2e2 | f2e2d2 c2A2F2 |
G3ABc d2B2G2 | GFGABc d2B2G2 | f4f2 Tf3ga2 | f6 d4 :|
|: e2 |\
f3gfe f3gfe | f4d2 c2A2F2 | g4g2 g2a2(g^f) | g2d2e2 f4e2 |
^fga2f2 g2d2e2 | e^fg2e2 d2B2G2 | g4d2 efg2d2 | TB6 G4 :|
